docs/images/benefits/clock-icon.svg

<svg width="32" height="32" viewBox="0 0 32 32" fill="none" xmlns="http://www.w3.org/2000/svg">
<path d="M16 16H15.0667C15.0664 16.1226 15.0904 16.2441 15.1372 16.3575C15.1839 16.4709 15.2526 16.574 15.3392 16.6608L16 16ZM16 28.1333C12.782 28.1333 9.69588 26.855 7.42044 24.5796C5.145 22.3041 3.86667 19.218 3.86667 16H2C2 19.713 3.475 23.274 6.1005 25.8995C8.72601 28.525 12.287 30 16 30V28.1333ZM28.1333 16C28.1333 17.5934 27.8195 19.1711 27.2097 20.6432C26.6 22.1153 25.7062 23.4529 24.5796 24.5796C23.4529 25.7062 22.1153 26.6 20.6432 27.2097C19.1711 27.8195 17.5934 28.1333 16 28.1333V30C19.713 30 23.274 28.525 25.8995 25.8995C28.525 23.274 30 19.713 30 16H28.1333ZM16 3.86667C17.5934 3.86667 19.1711 4.1805 20.6432 4.79026C22.1153 5.40002 23.4529 6.29375 24.5796 7.42044C25.7062 8.54712 26.6 9.88469 27.2097 11.3568C27.8195 12.8289 28.1333 14.4066 28.1333 16H30C30 12.287 28.525 8.72601 25.8995 6.1005C23.274 3.475 19.713 2 16 2V3.86667ZM16 2C12.287 2 8.72601 3.475 6.1005 6.1005C3.475 8.72601 2 12.287 2 16H3.86667C3.86667 12.782 5.145 9.69588 7.42044 7.42044C9.69588 5.145 12.782 3.86667 16 3.86667V2ZM15.0667 7.6V16H16.9333V7.6H15.0667ZM15.3392 16.6608L20.9392 22.2608L22.2608 20.9392L16.6608 15.3392L15.3392 16.6608Z" fill="#BC002D"/>
</svg>

<svg width="32" height="32" fill="none" xmlns="http://www.w3.org/2000/svg"><path d="M16 16h-.933a.931.931 0 0 0 .272.66L16 16Zm0 12.133A12.133 12.133 0 0 1 3.867 16H2a14 14 0 0 0 14 14v-1.867ZM28.133 16A12.132 12.132 0 0 1 16 28.133V30a14 14 0 0 0 14-14h-1.867ZM16 3.867A12.133 12.133 0 0 1 28.133 16H30A14 14 0 0 0 16 2v1.867ZM16 2A14 14 0 0 0 2 16h1.867A12.133 12.133 0 0 1 16 3.867V2Zm-.933 5.6V16h1.866V7.6h-1.866Zm.272 9.06 5.6 5.6 1.322-1.32-5.6-5.6-1.322 1.32Z" fill="#BC002D"/></svg>
